X:1
T:Lasciate'i vostri
T:André Vierendeels
T:Source : Melody in Tenor voice from "Corona di Sacre canzoni o Laude spirituali" Firenze---Eredi Francesco Orofri---1689. Editor : André Vierendeels (07/12/17). Notes : Original clef : C4, other voices supplied editorially Music compiled by Matteo Coferati
T:Lasciate'i vostri
T:©
T:©
C:André Vierendeels
Z:©
%%score [ 1 2 3 ]
L:1/8
Q:1/4=120
M:4/4
K:C
V:1 treble nm="Soprano" snm="S"
V:2 treble nm="Alto" snm="A"
V:3 treble-8 nm="Tenor" snm="T"
V:1
 d4 B4 | G2 GA d3 c | c2 G2 ^F4 |[M:2/4] G4 :: GG GG/G/ |[M:4/4] ccBc B3 d | c2 G2 G3 B | %7
w: La- scia-|te'i vo- stro'al- ber- ghi'o|Pa- sto- rel-|li,|deh cor- re- te'a ve-|der, o gran stu- po- *|re, fat- to bam-|
w: La- scia-|t'o- gn'o- pe- ra, ben-|che gran- de|fia,|deh cor- re- te'a ve-|der, no- vo Pa- sto- *|re, che reg- g'e|
 c3 G B3 c | A2 B2 d4 | B8 :| %10
w: bin, chi del tut-|to'e Si- gno-|re.|
w: pa- sce l'al- ma|sol d'a- mo-|re.|
V:2
 G4 D4 | D2 DD G3 F | E2 D2 D4 |[M:2/4] B,4 :: EE EE/F/ |[M:4/4] GEGG G3 F | E2 E2 B,2 D2 | %7
w: La- scia-|te'i vo- stro'al- ber- ghi'o|Pa- sto- rel-|li,|deh cor- re- te'a ve-|der, o gran stu- po- *|re, fat- to bam-|
w: Non vi|ri- tar- d'il pen- sier|di do- nar-|gli,|A- gnel- la'o lat- te'al-|tro non pre- gia'e de- *|gna, che'l cuo- re'o-|
 E2 G2 G3 E | D2 D(G ^F4) | D8 :| %10
w: bin, chi del tut-|to'e Si- gno- *|re.|
w: ve mor- tal co-|sa non re- *|gna.|
V:3
 z4 z2 B2 | BBBA B3 A | A2 GB A4 |[M:2/4] G4 :: cc cc/d/ |[M:4/4] ecde d4 | c2 e2 d3 d | %7
w: La-|scia- te'i vo- stro'al- ber- ghi'o|Pa- sto- * rel-|li,|deh cor- re- te'a ve-|der, o gran stu- po-|re, fat- to bam-|
w: An-|da- te'in Bet- te- lem, i-|vi'l ve- * dre-|te,|su su cor- re- te'in|u- na ca- pa- nel-|la, col buon Giu-|
 c3 c B d2 A | A2 G(B A4) | G8 :| %10
w: bin, chi del tut- *|to'e Si- gno- *|re.|
w: sep- p'e Ma- ri- a|Ver- gi- nel- *|la.|

